X:157
T:Tony Rowe's
Z: id:dc-jig-134
M:6/8
L:1/8
K:D Major
E|F3 AFE|EDB, A,B,D|FEF GFG|ABF AFE|!
F3 AFE|EDB, A,B,D|FEF GFG|BAF D2:|!
e|f2d dcd|edc Bcd|f2d dcd|ABF Ade|!
f2d dcd|edc Bcd|faf gec|dec d2:|!

